X: 2
T: The Lakes Of Ponchartrain
R: waltz
M: 3/4
L: 1/8
K: Gmaj
|:D2|G4 e2|d4 ed|B2 A2 d2|B4 A2|
G E3 F2|G4 G2|(G6 |G4) d2|
d4 B2|d2 e2 f2|g4 g2|f2 e2 d2|
B4 A2|B2 c2 d2|(e6 | e4) e2|
d4 B2|d2 e2 f2|g4 g2|f2 e2 d2|
B4 A2|B2 c2 d2|(e6 | e4) G2|
G4 e2|d4 ed|B2 A2 d2|B4 A2|
G E3 F2|G4 G2|(G6 |G4) :|


Tune 896	Setting 24905

